X: 1
T: L\aangbacka-Jans polska
O: Leif Alpsj\"o
R: bond-polska
Z: John Chambers <jc@trillian.mit.edu>
M: 3/4
L: 1/16
K: D
F \
|: "D"A3d f2e2 "(G)"d3B \
| "D"B3A ABAF D3F \
| "A7"F2EF G3A, C3E \
|1,3 "D"E3D D2F2 A3F \
:|2,4 E3D "D"D8 :|
|: "D"A,4 {D}D4 {F}F3A \
| "Em"ABAF G4 B2GE \
| "A7"E4 {A}A4 {c}c3e \
|1,3 "D"efec d2A2 F2A2 \
:|2,4 "A7"efec "D"d8 :|
|: "D"{e}f4 f2d2 f3a \
| "Em"ag3 e6 f2 \
| "A7"g4 g2f2 g3b \
| "D"ba3 f8 \
| A,4 {D}D4 {F}F3A \
| "Em"ABAF G4 B2GE \
| "A7"E4 {A}A4 {c}c3e \
| efec "D"d8 :|
